modules/hawcons-stroke/icons/icon-18-one-finger-swipe-left.svg

<?xml version="1.0" encoding="UTF-8" standalone="no"?>
<svg width="32px" height="32px" viewBox="0 0 32 32" version="1.1" xmlns="http://www.w3.org/2000/svg" xmlns:xlink="http://www.w3.org/1999/xlink" xmlns:sketch="http://www.bohemiancoding.com/sketch/ns">
    <!-- Generator: Sketch 3.0.3 (7891) - http://www.bohemiancoding.com/sketch -->
    <title>icon 18 one finger swipe left</title>
    <desc>Created with Sketch.</desc>
    <defs></defs>
    <g id="Page-1" stroke="none" stroke-width="1" fill="none" fill-rule="evenodd" sketch:type="MSPage">
        <g id="icon-18-one-finger-swipe-left" sketch:type="MSArtboardGroup" fill="#929292">
            <path d="M13,7 L5.950001,7 L9.200001,10.25 L8.450001,11 L3.950001,6.5 L8.450001,2 L9.200001,2.75 L5.950001,6 L13.0509304,6 C13.284308,4.85365164 14.2921175,4 15.5,4 C16.8903379,4 18,5.12305276 18,6.50840855 L18,11.4983653 C18.4178303,11.1853054 18.937197,11 19.5,11 C20.5825181,11 21.4948851,11.6774672 21.8458175,12.6281239 C22.2865931,12.2379894 22.8657109,12 23.5,12 C24.8903379,12 26,13.1182256 26,14.4976267 L26,14.5110883 C26.4178303,14.1985158 26.937197,14.014191 27.5,14.014191 C28.8903379,14.014191 30,15.1335355 30,16.5143168 L30,22.5 C30,27.1944206 26.1944206,31 21.5,31.0000003 C18.3870848,31.0000003 15.101807,29.5474856 12.8408204,25.4282229 C9.57733174,19.4825159 5.40385286,15.5832077 7.39111327,13.5959473 C8.81276236,12.1742982 11.0448416,13.5381668 13,15.3667868 L13,15.3667868 L13,7 L13,7 Z M21.4987391,29.9999999 C25.6415711,30 29,26.4147752 29,22.5 C29,22.5 29,24.8132437 29,22.5 L29,18.7491622 L29,16.5016756 C29,15.6723231 28.3342028,15 27.5,15 C26.6715729,15 26,15.6711894 26,16.5016756 L26,17 L25,17 L25,14.5064385 C25,13.6744555 24.3342028,13 23.5,13 C22.6715729,13 22,13.6715406 22,14.5064385 L22,16 L21,16 L21,13.5064385 C21,12.6744555 20.3342028,12 19.5,12 C18.6715729,12 18,12.6715406 18,13.5064385 L18,17 L17,17 L17,6.50524116 C17,5.67391942 16.3342028,5 15.5,5 C14.6715729,5 14,5.66712976 14,6.50524116 L14,17.7999878 C11.9416004,15.599567 9.23162978,13.1791206 8.12103271,14.2957153 C7.03386293,15.3887562 9.83536199,18.4007216 13.7473755,24.9830936 C15.5099958,27.9488875 17.7402849,29.9995418 21.4987391,29.9999999 L21.4987391,29.9999999 Z" id="one-finger-swipe-left" sketch:type="MSShapeGroup"></path>
        </g>
    </g>
</svg>

<svg width="32" height="32" xmlns="http://www.w3.org/2000/svg"><path d="M13 7H5.95l3.25 3.25-.75.75-4.5-4.5L8.45 2l.75.75L5.95 6h7.1a2.497 2.497 0 0 1 2.45-2C16.89 4 18 5.123 18 6.508v4.99A2.493 2.493 0 0 1 19.5 11c1.083 0 1.995.677 2.346 1.628.44-.39 1.02-.628 1.654-.628 1.39 0 2.5 1.118 2.5 2.498v.013a2.495 2.495 0 0 1 1.5-.497c1.39 0 2.5 1.12 2.5 2.5V22.5a8.5 8.5 0 0 1-8.5 8.5c-3.113 0-6.398-1.453-8.66-5.572-3.263-5.945-7.436-9.845-5.449-11.832 1.422-1.422 3.654-.058 5.609 1.77V7zm8.499 23C25.642 30 29 26.415 29 22.5c0 0 0 2.313 0 0v-5.998a1.5 1.5 0 0 0-3 0V17h-1v-2.494a1.5 1.5 0 1 0-3 0V16h-1v-2.494a1.5 1.5 0 1 0-3 0V17h-1V6.505a1.499 1.499 0 1 0-3 0V17.8c-2.058-2.2-4.768-4.62-5.879-3.504-1.087 1.093 1.714 4.105 5.626 10.687C15.51 27.95 17.74 30 21.5 30z" fill="#929292" fill-rule="evenodd"/></svg>
